packages/bezier-icons/icons/email-forward.svg

<svg width="24" height="24" viewBox="0 0 24 24" fill="none" xmlns="http://www.w3.org/2000/svg">
<path fill-rule="evenodd" clip-rule="evenodd" d="M2.00182 9.43906C1.99957 9.47614 1.99942 9.51318 2.00129 9.55C2.00021 9.81424 2.00021 10.0969 2.00021 10.4V13.6C2.00021 15.8402 2.00021 16.9603 2.43619 17.816C2.81968 18.5686 3.4316 19.1805 4.18425 19.564C5.0399 20 6.16 20 8.40021 20H12.0002V18H8.40021C7.24711 18 6.50256 17.9984 5.93589 17.9521C5.39256 17.9078 5.19112 17.8324 5.09223 17.782C4.71591 17.5903 4.40995 17.2843 4.2182 16.908C4.16781 16.8091 4.09246 16.6077 4.04807 16.0643C4.00177 15.4977 4.00021 14.7531 4.00021 13.6V11.118L10.6586 14.4472C11.5032 14.8695 12.4973 14.8695 13.3419 14.4472L22.0002 10.1211C22.0001 9.92167 21.9999 9.7316 21.9991 9.5502C22.001 9.51325 22.0009 9.47608 21.9986 9.43886C21.9898 7.82004 21.9329 6.90751 21.5642 6.18404C21.1807 5.43139 20.5688 4.81947 19.8162 4.43597C18.9605 4 17.8404 4 15.6002 4H8.40021C6.16 4 5.0399 4 4.18425 4.43597C3.4316 4.81947 2.81968 5.43139 2.43619 6.18404C2.06755 6.90754 2.01061 7.82012 2.00182 9.43906ZM8.40021 6H15.6002C16.7533 6 17.4979 6.00156 18.0645 6.04785C18.6079 6.09225 18.8093 6.1676 18.9082 6.21799C19.2845 6.40973 19.5905 6.71569 19.7822 7.09202C19.8326 7.19091 19.908 7.39235 19.9524 7.93567C19.9743 8.20423 19.9862 8.51274 19.9926 8.88576L12.4474 12.6584C12.1659 12.7991 11.8345 12.7991 11.553 12.6584L4.00779 8.88575C4.01423 8.51274 4.02613 8.20423 4.04807 7.93567C4.09246 7.39235 4.16781 7.19091 4.2182 7.09202C4.40995 6.71569 4.71591 6.40973 5.09223 6.21799C5.19112 6.1676 5.39256 6.09225 5.93589 6.04785C6.50256 6.00156 7.24711 6 8.40021 6ZM20 18.7751V17H18.9C17.2984 17 16 18.2984 16 19.9V20C16 20.5523 15.5523 21 15 21C14.4477 21 14 20.5523 14 20V19.9C14 17.1938 16.1938 15 18.9 15H20V13.2249C20 12.5804 20.7516 12.2576 21.1912 12.7133L23.7445 15.3605C24.0852 15.7137 24.0852 16.2863 23.7445 16.6395L21.1912 19.2866C20.7516 19.7424 20 19.4196 20 18.7751Z" fill="#313234"/>
</svg>

<svg xmlns="http://www.w3.org/2000/svg" width="24" height="24" fill="none" viewBox="0 0 24 24"><path fill="#313234" fill-rule="evenodd" d="M2.002 9.44a1 1 0 0 0 0 .11q-.003.396-.002.85v3.2c0 2.24 0 3.36.436 4.216a4 4 0 0 0 1.748 1.748C5.04 20 6.16 20 8.4 20H12v-2H8.4c-1.153 0-1.897-.002-2.464-.048-.543-.044-.745-.12-.844-.17a2 2 0 0 1-.874-.874c-.05-.099-.126-.3-.17-.844C4.002 15.498 4 14.754 4 13.6v-2.482l6.659 3.33a3 3 0 0 0 2.683 0L22 10.12 22 9.44c-.01-1.619-.066-2.531-.435-3.255a4 4 0 0 0-1.748-1.748C18.961 4 17.84 4 15.6 4H8.4c-2.24 0-3.36 0-4.216.436a4 4 0 0 0-1.748 1.748c-.368.724-.425 1.636-.434 3.255M8.4 6h7.2c1.153 0 1.898.002 2.464.048.544.044.745.12.844.17a2 2 0 0 1 .874.874c.05.099.126.3.17.844.022.268.034.577.04.95l-7.545 3.772a1 1 0 0 1-.894 0L4.008 8.886c.006-.373.018-.682.04-.95.044-.544.12-.745.17-.844a2 2 0 0 1 .874-.874c.1-.05.3-.126.844-.17C6.503 6.002 7.247 6 8.4 6M20 18.775V17h-1.1a2.9 2.9 0 0 0-2.9 2.9v.1a1 1 0 1 1-2 0v-.1a4.9 4.9 0 0 1 4.9-4.9H20v-1.775c0-.645.752-.967 1.191-.512l2.553 2.648c.341.353.341.925 0 1.279l-2.553 2.647c-.44.455-1.191.133-1.191-.512" clip-rule="evenodd"/></svg>
